ix/home-trend-down_broken.svg

<svg viewBox="0 0 24 24" fill="none" xmlns="http://www.w3.org/2000/svg" height="1em" width="1em">
  <path d="M22 10.4999C22 9.28992 21.19 7.73992 20.2 7.04992L14.02 2.71992C12.62 1.73992 10.37 1.78992 9.02 2.83992L3.63 7.03992C2.73 7.73992 2 9.22992 2 10.3599V17.7699C2 20.0899 3.89 21.9899 6.21 21.9899H17.79C20.11 21.9899 22 20.0899 22 17.7799V14.6799" stroke="#292D32" stroke-width="1.5" stroke-linecap="round" stroke-linejoin="round"/>
  <path d="M11.17 14L10.7 14.7L7.5 11.5" stroke="#292D32" stroke-width="1.5" stroke-linecap="round" stroke-linejoin="round"/>
  <path d="M16.5 16.5L14.99 14.99L14 14" stroke="#292D32" stroke-width="1.5" stroke-linecap="round" stroke-linejoin="round"/>
  <path d="M14.5 16.5H16.5V14.5" stroke="#292D32" stroke-width="1.5" stroke-linecap="round" stroke-linejoin="round"/>
</svg>

<svg viewBox="0 0 24 24" fill="none" xmlns="http://www.w3.org/2000/svg" height="1em" width="1em">
  <path d="M22 10.5c0-1.21-.81-2.76-1.8-3.45l-6.18-4.33c-1.4-.98-3.65-.93-5 .12l-5.39 4.2C2.73 7.74 2 9.23 2 10.36v7.41c0 2.32 1.89 4.22 4.21 4.22h11.58c2.32 0 4.21-1.9 4.21-4.21v-3.1" stroke="#292D32" stroke-width="1.5" stroke-linecap="round" stroke-linejoin="round"/>
  <path d="m11.17 14-.47.7-3.2-3.2m9 5-1.51-1.51L14 14m.5 2.5h2v-2" stroke="#292D32" stroke-width="1.5" stroke-linecap="round" stroke-linejoin="round"/>
</svg>
